website/public/Images/logos/Prometheus.svg

<svg width="28" height="28" viewBox="0 0 28 28" fill="none" xmlns="http://www.w3.org/2000/svg">
<path d="M13.7573 0.164062C6.15969 0.164062 0 6.39505 0 14.0818C0 21.7683 6.15969 27.9997 13.7573 27.9997C21.355 27.9997 27.5145 21.7683 27.5145 14.0818C27.5145 6.39505 21.3548 0.164062 13.7573 0.164062ZM13.7573 26.2127C11.5957 26.2127 9.84308 24.7517 9.84308 22.9502H17.6716C17.6716 24.7515 15.919 26.2127 13.7573 26.2127ZM20.2225 21.8697H7.29151V19.4976H20.2227V21.8697H20.2225ZM20.1761 18.2766H7.32841C7.28569 18.2268 7.24199 18.1776 7.20071 18.127C5.8771 16.5011 5.56538 15.6522 5.26264 14.7872C5.25754 14.7587 6.86763 15.12 8.0094 15.3799C8.0094 15.3799 8.59692 15.5174 9.45585 15.6758C8.63115 14.6978 8.14147 13.4545 8.14147 12.1837C8.14147 9.39375 10.2565 6.95578 9.49348 4.98522C10.2361 5.04638 11.0305 6.57091 11.0841 8.95459C11.8737 7.8508 12.2041 5.83505 12.2041 4.59912C12.2041 3.31947 13.0375 1.83301 13.8712 1.78217C13.1281 3.02129 14.0637 4.08357 14.8955 6.71876C15.2074 7.70859 15.1676 9.37434 15.4085 10.4307C15.4883 8.23666 15.8612 5.03533 17.237 3.93006C16.6301 5.32196 17.3269 7.06361 17.8034 7.90091C18.5723 9.25178 19.0384 10.2753 19.0384 12.2109C19.0384 13.5088 18.5648 14.7307 17.7658 15.6859C18.6743 15.5135 19.3016 15.358 19.3016 15.358L22.2518 14.7756C22.2521 14.7754 21.8233 16.559 20.1761 18.2766Z" fill="#E6522C"/>
</svg>

<svg xmlns="http://www.w3.org/2000/svg" width="28" height="28" fill="none" xmlns:v="https://vecta.io/nano"><path d="M13.757.164C6.16.164 0 6.395 0 14.082S6.16 28 13.757 28s13.757-6.231 13.757-13.918S21.355.164 13.757.164zm0 26.049c-2.162 0-3.914-1.461-3.914-3.263h7.829c0 1.801-1.753 3.263-3.914 3.263zm6.465-4.343H7.292v-2.372h12.931v2.372h0zm-.046-3.593H7.328l-.128-.15c-1.324-1.626-1.635-2.475-1.938-3.34-.005-.029 1.605.333 2.747.593 0 0 .588.138 1.446.296-.825-.978-1.314-2.221-1.314-3.492 0-2.79 2.115-5.228 1.352-7.198.743.061 1.537 1.586 1.591 3.969.79-1.104 1.12-3.12 1.12-4.355 0-1.28.833-2.766 1.667-2.817-.743 1.239.193 2.301 1.024 4.937.312.99.272 2.656.513 3.712.08-2.194.453-5.395 1.828-6.501-.607 1.392.09 3.134.566 3.971.769 1.351 1.235 2.374 1.235 4.31a5.42 5.42 0 0 1-1.273 3.475c.909-.172 1.536-.328 1.536-.328l2.95-.582c0 0-.428 1.783-2.076 3.501z" fill="#e6522c"/></svg>
